!!!COM: Bach, Johann Sebastian
!!!OPR: Joh. Seb. Bachs vierstimmige Choralgesänge
!!!XEN: Four-part Chorales
!!!OTL: 154. O wir armen Sünder
!!!SCT: BWV 407
!!!SCA: Thematisch-systematisches Verzeichnis der musikalischen Werke Johann Sebastian Bach: Bach-Werke-Verzeichnis (Schmieder)
!!!YOR: Bach Gesellschaft Edition xxxix
!!!ENC: Steven Rasmussen
!!!CDT: 1685/3//-1750/7/28/
!!!OCY: Deutschland
!!!YEC: Copyright (c) 1994, 2000 Center for Computer Assisted Research in the Humanities
!!!YEM: Rights to all derivative editions reserved
!!!YEN: United States of America
**kern	**silbe	**kern	**silbe	**kern	**silbe	**kern	**silbe
*I:[BASSO]	*I:[BASSO]	*I:[TENORE]	*I:[TENORE]	*I:[ALTO]	*I:[ALTO]	*I:[SOPRANO]	*I:[SOPRANO]
*clefF4	*	*clefGv2	*	*clefG2	*	*clefG2	*
*k[f#c#]	*	*k[f#c#]	*	*k[f#c#]	*	*k[f#c#]	*
*D:	*	*D:	*	*D:	*	*D:	*
*M4/4	*	*M4/4	*	*M4/4	*	*M4/4	*
=1-	=1-	=1-	=1-	=1-	=1-	=1-	=1-
4.D	.	4d	.	4f#	.	4a	O
.	.	4e	.	4g	.	4a	wir
8C#	.	.	.	.	.	.	.
8DL	.	4e	.	8f#L	.	4a	ar-
8EJ	.	.	.	8gJ	.	.	.
8F#L	.	4d	.	4a	.	4a	-men
8DJ	.	.	.	.	.	.	.
=2	=2	=2	=2	=2	=2	=2	=2
4G	.	2d	.	8aL	.	2b	SÃ¼n-
.	.	.	.	16gL	.	.	.
.	.	.	.	16f#JJ	.	.	.
4GG	.	.	.	4g	.	.	.
2D;	.	2d;	.	(4g	.	2a;	-der!
.	.	.	.	4f#;)	.	.	.
=3	=3	=3	=3	=3	=3	=3	=3
4E	.	8dL	.	4.e	.	4g	uns-
.	.	16c#L	.	.	.	.	.
.	.	16BJJ	.	.	.	.	.
4F#	.	4A	.	.	.	4f#	-re
.	.	.	.	8d	.	.	.
4G	.	4B	.	8dL	.	4e	Mis-
.	.	.	.	16c#L	.	.	.
.	.	.	.	16BJJ	.	.	.
8AL	.	8AL	.	4c#	.	4e	-se-
8AAJ	.	8GJ	.	.	.	.	.
=4	=4	=4	=4	=4	=4	=4	=4
1D;	.	1F#;	.	1A;	.	1d;	-tat,
=5	=5	=5	=5	=5	=5	=5	=5
4D	.	4F#	.	4d	.	4a	da-
8AAL	.	4E	.	8c#L	.	4a	-rin
8BBJ	.	.	.	8dJ	.	.	.
8C#L	.	8AL	.	8eL	.	4a	wir
8AAJ	.	8GJ	.	8c#J	.	.	.
8DL	.	4F#	.	8dL	.	4a	em-
8C#J	.	.	.	8eJ	.	.	.
=6	=6	=6	=6	=6	=6	=6	=6
8D#	.	8F#L	.	8f#L	.	2b	-pfan-
4E	.	8EJ	.	8gJ	.	.	.
.	.	4B	.	4f#	.	.	.
8D#	.	.	.	.	.	.	.
2E;	.	2B;	.	2e;	.	2g;	-gen
=7	=7	=7	=7	=7	=7	=7	=7
8EL	.	4e	.	4g	.	4b	und
8DJ	.	.	.	.	.	.	.
8CnL	.	4e	.	4g#	.	4b	ge-
8BBJ	.	.	.	.	.	.	.
8AAL	.	8eL	.	4.a	.	4ccn	-bo-
8FFnJ	.	8AJ	.	.	.	.	.
8DDL	.	8fnL	.	.	.	4b	-ren
8EEJ	.	8eJ	.	8g#	.	.	.
=8	=8	=8	=8	=8	=8	=8	=8
1AA;	.	1c#;	.	1e;	.	1a;	sind,
=9	=9	=9	=9	=9	=9	=9	=9
8DL	.	4d	.	4f#	.	4a	hat
8EJ	.	.	.	.	.	.	.
8F#L	.	8dL	.	8f#L	.	4a	ge-
8GJ	.	8c#J	.	8eJ	.	.	.
8F#L	.	8dL	.	8f#L	.	4a	-bracht
8EJ	.	8eJ	.	8gJ	.	.	.
8DL	.	8f#L	.	4a	.	4a	und
8CnJ	.	8eJ	.	.	.	.	.
=10	=10	=10	=10	=10	=10	=10	=10
8BBL	.	8dL	.	4a	.	2dd	al-
8AA	.	8cnJ	.	.	.	.	.
8BB	.	4d	.	4g	.	.	.
8C#J	.	.	.	.	.	.	.
4D;	.	4d;	.	4f#;	.	4a;	-le
4D	.	8dL	.	4f#	.	4a	in
.	.	8cJ	.	.	.	.	.
=11	=11	=11	=11	=11	=11	=11	=11
8GL	sol-	8B	sol-	8eL	.	4b	sol-
8F#J	.	8A	-che	8d#J	.	.	.
8EL	-che	4.G	gro-	4e	.	4b	-che
8DJ	.	.	.	.	.	.	.
8CnL	gro-	.	.	4e	.	4a	gro-
8C#J	.	16F#LL	.	.	.	.	.
.	.	16EJJ	.	.	.	.	.
8DL	-sse	4F#	-sse	8dnL	.	4a	-sse
8D#J	.	.	.	8cnJ	.	.	.
=12	=12	=12	=12	=12	=12	=12	=12
1E;	.	1G;	.	1B;	.	1g;	Not,
=13	=13	=13	=13	=13	=13	=13	=13
8C#L	.	8EL	.	8eL	.	4a	dass
8AAJ	.	8GJ	.	8c#J	.	.	.
8BBL	.	8F#L	.	8dL	.	4a	wir
8C#J	.	8EJ	.	8eJ	.	.	.
8DL	.	8DL	.	4f#	.	4a	un-
8EJ	.	8AJ	.	.	.	.	.
8F#L	.	4d	.	4f#	.	4a	-ter-
8GJ	.	.	.	.	.	.	.
=14	=14	=14	=14	=14	=14	=14	=14
4A	.	8dL	.	8eL	.	2a	-wor-
.	.	8c#J	.	8g	.	.	.
4AA	.	4cn	.	8f#	.	.	.
.	.	.	.	8eJ	.	.	.
2BB;	.	2B;	.	8eL	.	2f#;	-fen
.	.	.	.	16d#L	.	.	.
.	.	.	.	16c#JJ	.	.	.
.	.	.	.	4d#;	.	.	.
=15	=15	=15	=15	=15	=15	=15	=15
8EEL	.	4B	.	4.e	.	4g	sind
8GGJ	.	.	.	.	.	.	.
8BBL	.	4B	.	.	.	4f#	dem
8AAJ	.	.	.	8d	.	.	.
8GGL	.	8BL	.	8dL	.	4.e	ew'-
8EEJ	.	8GJ	.	16c#L	.	.	.
.	.	.	.	16BJJ	.	.	.
4AA	.	8EL	.	4c#	.	.	.
.	.	8AJ	.	.	.	8d	-gen
=16	=16	=16	=16	=16	=16	=16	=16
1DD;	.	1F#;	.	1A;	.	1d;	Tod.
=17	=17	=17	=17	=17	=17	=17	=17
2D	Ky-	4A	Ky-	2f#	.	2a	Ky-
.	.	2d	.	.	.	.	.
2GG#	-rie	.	.	(4fn	.	2b	-rie
.	.	8cnL	-rie	4e)	.	.	.
.	.	8BJ	.	.	.	.	.
=18	=18	=18	=18	=18	=18	=18	=18
2.AA	e-	4A	e-	4e	e-	1ccn	e-
.	.	4G	.	8fnL	.	.	.
.	.	.	.	8gJ	.	.	.
.	.	4Fn	.	4a	.	.	.
8BBL	.	4E	.	[4g	.	.	.
8CnJ	.	.	.	.	.	.	.
=19	=19	=19	=19	=19	=19	=19	=19
4D	-lei-	4D	-lei-	4g]	.	2a	-lei-
4BB	.	2d	.	4fn	.	.	.
2E	.	.	.	2e	-lei-	2g#	.
.	.	8cnL	.	.	.	.	.
.	.	8BJ	.	.	.	.	.
=20	=20	=20	=20	=20	=20	=20	=20
1AA;	-son!	1c#;	-son!	1e;	-son!	1a;	-son!
=21	=21	=21	=21	=21	=21	=21	=21
2.BB	Chri-	4F#	Chri-	2.b	Chri-	2.dd	Chri-
.	.	8EL	.	.	.	.	.
.	.	8F#J	.	.	.	.	.
.	.	4G	.	.	.	.	.
4C#	.	4E	.	8aL	.	4ee	.
.	.	.	.	8gJ	.	.	.
=22	=22	=22	=22	=22	=22	=22	=22
2D	.	8F#L	.	[2f#	.	2a	.
.	.	8G#J	.	.	.	.	.
.	.	2A	.	.	.	.	.
2D#	-ste	.	.	8f#L]	.	2b	-ste
.	.	.	.	8g#J	.	.	.
.	.	4F#	-ste	4a	-ste	.	.
=23	=23	=23	=23	=23	=23	=23	=23
2E	e-	4c#	e-	2.g#	e-	1cc#	e-
.	.	8BL	.	.	.	.	.
.	.	8AJ	.	.	.	.	.
2E#	.	8G#L	.	.	.	.	.
.	.	8F#J	.	.	.	.	.
.	.	4G#	.	[4c#	.	.	.
=24	=24	=24	=24	=24	=24	=24	=24
2F#	-lei-	4A	-lei-	4c#]	.	2.a	-lei-
.	.	8BL	.	8dL	.	.	.
.	.	8c#J	.	8eJ	.	.	.
2BB	.	[2d	.	4f#	-lei-	.	.
.	.	.	.	8eL	.	4g#	.
.	.	.	.	8dJ	.	.	.
=25	=25	=25	=25	=25	=25	=25	=25
1AA	-son!	4d]	.	1e	-son!	1a	-son!
.	.	4d	-son!	.	.	.	.
.	.	4c#	.	.	.	.	.
.	.	4B	.	.	.	.	.
=26	=26	=26	=26	=26	=26	=26	=26
4F#	Ky-	[2A	Ky-	8c#L	Ky-	4.a	Ky-
.	.	.	.	8dJ	.	.	.
4C#	.	.	.	[4e	-rie	.	.
.	.	.	.	.	.	8g	.
4D	-rie	16ALL]	.	8eL]	.	4f#	-rie
.	.	16BJJ	.	.	.	.	.
.	.	4cn	-rie	8dJ	.	.	.
4GG	e-	.	.	[4d	e-	4g	e-
.	.	16BLL	e-	.	.	.	.
.	.	16AJJ	.	.	.	.	.
=27	=27	=27	=27	=27	=27	=27	=27
4GG#	-lei-	8B	-lei-	8dL]	.	2e	-lei-
.	.	4E	.	16c#L	.	.	.
.	.	.	.	16BJJ	.	.	.
4AA	.	.	.	4c#	-lei-	.	.
.	.	16F#LL	.	.	.	.	.
.	.	16GJJ	.	.	.	.	.
2DD;	-son!	2F#;	-son!	2A;	-son!	2d;	-son!
==|!	==|!	==|!	==|!	==|!	==|!	==|!	==|!
*-	*-	*-	*-	*-	*-	*-	*-
!!!RWG: Key is interpreted using the Humdrum key tool.
!!!URL-pdf: https://s9.imslp.org/files/imglnks/usimg/6/6b/IMSLP24489-PMLP09471-CCARH_Bach_Chorales.pdf#page=107 Musedata edition
!!!URL-pdf: https://s9.imslp.org/files/imglnks/usimg/7/7a/IMSLP04155-Bach_-_BGA_253-438.pdf#page=84 	Bach-Gesellschaft Ausgabe, Band 39 (pp.175-276) Leipzig: Breitkopf und Härtel, 1892. Plate B.W. XXXIX.
!!!END: 1994/07/29
!!!EMD: Converted from MuseData to Humdrum Dec 19, 2000, by Andreas Kornstaedt using muse2kern.
!!!EED: Craig Stuart Sapp
!!!EEV: 2024/03/31
!!!ONB: Some non-unicode characters
!!!filter-keyboard: satb2gs
